svg/brightness-down.svg

<svg xmlns="http://www.w3.org/2000/svg" viewBox="0 0 48 48" enable-background="new 0 0 48 48"><style type="text/css">.st0{fill:#343434;}</style><title>brightness-down</title><desc>Created with Sketch.</desc><path class="st0" d="M7 24c0-.7 0-1.3.1-2h-5.1c-1.1 0-2 .9-2 2s.9 2 2 2h5.1c-.1-.7-.1-1.3-.1-2zM10.6 13.5c.8-1 1.8-2 2.8-2.8l-3.5-3.7c-.8-.8-2.1-.8-2.9 0-.8.8-.8 2 0 2.8l3.6 3.7zM26 7.1v-5.1c0-1.1-.9-2-2-2s-2 .9-2 2v5.1c.7-.1 1.3-.1 2-.1s1.3 0 2 .1zM37.4 13.5l3.6-3.6c.8-.8.8-2 0-2.8-.8-.8-2-.8-2.8 0l-3.6 3.6c1 .8 1.9 1.7 2.8 2.8zM22 40.9v5.1c0 1.1.9 2 2 2s2-.9 2-2v-5.1c-.7.1-1.3.1-2 .1s-1.3 0-2-.1zM37.4 34.5c-.8 1-1.8 2-2.8 2.8l3.6 3.6c.8.8 2 .8 2.8 0 .8-.8.8-2 0-2.8l-3.6-3.6zM10.6 34.5l-3.6 3.6c-.8.8-.8 2 0 2.8.8.8 2 .8 2.8 0l3.6-3.6c-1-.8-1.9-1.7-2.8-2.8zM46 22h-5.1c.1.7.1 1.3.1 2s0 1.3-.1 2h5.1c1.1 0 2-.9 2-2s-.9-2-2-2z"/><circle class="st0" cx="24" cy="24" r="14"/></svg>

<?xml version="1.0" encoding="utf-8"?>
<!-- Generator: Adobe Illustrator 21.0.0, SVG Export Plug-In . SVG Version: 6.00 Build 0)  -->
<svg version="1.1" id="Layer_1" xmlns="http://www.w3.org/2000/svg" xmlns:xlink="http://www.w3.org/1999/xlink" x="0px" y="0px"
	 viewBox="0 0 48 48" style="enable-background:new 0 0 48 48;" xml:space="preserve">
<style type="text/css">
	.st0{fill:#343434;}
</style>
<title>brightness-down</title>
<desc>Created with Sketch.</desc>
<g>
	<path class="st0" d="M7,24c0-0.7,0-1.3,0.1-2H2c-1.1,0-2,0.9-2,2c0,1.1,0.9,2,2,2h5.1C7,25.3,7,24.7,7,24z"/>
	<path class="st0" d="M10.6,13.5c0.8-1,1.8-2,2.8-2.8L9.9,7C9.1,6.2,7.8,6.2,7,7c-0.8,0.8-0.8,2,0,2.8L10.6,13.5z"/>
	<path class="st0" d="M26,7.1V2c0-1.1-0.9-2-2-2c-1.1,0-2,0.9-2,2v5.1C22.7,7,23.3,7,24,7S25.3,7,26,7.1z"/>
	<path class="st0" d="M37.4,13.5L41,9.9c0.8-0.8,0.8-2,0-2.8c-0.8-0.8-2-0.8-2.8,0l-3.6,3.6C35.6,11.5,36.5,12.4,37.4,13.5z"/>
	<path class="st0" d="M22,40.9V46c0,1.1,0.9,2,2,2c1.1,0,2-0.9,2-2v-5.1C25.3,41,24.7,41,24,41S22.7,41,22,40.9z"/>
	<path class="st0" d="M37.4,34.5c-0.8,1-1.8,2-2.8,2.8l3.6,3.6c0.8,0.8,2,0.8,2.8,0c0.8-0.8,0.8-2,0-2.8L37.4,34.5z"/>
	<path class="st0" d="M10.6,34.5L7,38.1c-0.8,0.8-0.8,2,0,2.8c0.8,0.8,2,0.8,2.8,0l3.6-3.6C12.4,36.5,11.5,35.6,10.6,34.5z"/>
	<path class="st0" d="M46,22h-5.1c0.1,0.7,0.1,1.3,0.1,2s0,1.3-0.1,2H46c1.1,0,2-0.9,2-2C48,22.9,47.1,22,46,22z"/>
	<circle class="st0" cx="24" cy="24" r="14"/>
</g>
</svg>
